packages/crayons-icon/icons/calendar-time.svg

<?xml version="1.0" encoding="UTF-8"?>
<svg width="14px" height="14px" viewBox="0 0 14 14" version="1.1" xmlns="http://www.w3.org/2000/svg" xmlns:xlink="http://www.w3.org/1999/xlink">
    <!-- Generator: Sketch 52.6 (67491) - http://www.bohemiancoding.com/sketch -->
    <title>icon/calendar-time</title>
    <desc>Created with Sketch.</desc>
    <g id="Icons-✅" stroke="none" stroke-width="1" fill="none" fill-rule="evenodd">
        <g id="Icons" transform="translate(-327.000000, -2653.000000)" fill="currentColor">
            <g id="icon/calendar-time" transform="translate(327.000000, 2653.000000)">
                <g id="calendar-time">
                    <path d="M11.6,0.85 C12.9232072,0.855479189 13.9945208,1.9267928 14,3.25 L14,5.46 C14,5.84659932 13.6865993,6.16 13.3,6.16 C12.9134007,6.16 12.6,5.84659932 12.6,5.46 L12.6,5.36 L1.4,5.36 L1.4,11.6 C1.4,12.1522847 1.84771525,12.6 2.4,12.6 L5.46,12.6 C5.84659932,12.6 6.16,12.9134007 6.16,13.3 C6.16,13.6865993 5.84659932,14 5.46,14 L2.4,14 C1.0767928,13.9945208 0.0054791892,12.9232072 0,11.6 L0,3.25 C0.0054791892,1.9267928 1.0767928,0.855479189 2.4,0.85 L3,0.85 L3,0.7 C3.06816545,0.376045246 3.35395135,0.144135353 3.685,0.144135353 C4.01604865,0.144135353 4.30183455,0.376045246 4.37,0.7 L4.37,0.85 L9.6,0.85 L9.6,0.7 C9.59999999,0.44991408 9.73341923,0.218825156 9.94999999,0.0937821928 C10.1665807,-0.0312607703 10.4334193,-0.0312607703 10.65,0.0937821928 C10.8665808,0.218825156 11,0.44991408 11,0.7 L11,0.85 L11.6,0.85 Z M1.4,4 L12.63,4 L12.63,3.25 C12.63,2.69771525 12.1822847,2.25 11.63,2.25 L11.06,2.25 L11.06,2.46 C11.06,2.84659932 10.7465993,3.16 10.36,3.16 C9.97340068,3.16 9.66,2.84659932 9.66,2.46 L9.66,2.25 L4.4,2.25 L4.4,2.46 C4.4,2.84659932 4.08659932,3.16 3.7,3.16 C3.31340068,3.16 3,2.84659932 3,2.46 L3,2.25 L2.4,2.25 C1.84771525,2.25 1.4,2.69771525 1.4,3.25 L1.4,4 Z M10.11,6.21 C12.2577237,6.22097899 13.9945351,7.96225521 14,10.11 C13.9999948,11.6883116 13.0487047,13.1110217 11.5901465,13.714077 C10.1315883,14.3171323 8.45334706,13.9816279 7.33874576,12.8641613 C6.22414446,11.7466947 5.89294987,10.0675976 6.49974785,8.61059249 C7.10654582,7.15358739 8.53169354,6.20595305 10.11,6.21 Z M10.11,12.6 C11.485189,12.6 12.6,11.485189 12.6,10.11 C12.6,9.10288901 11.993331,8.19494465 11.0628817,7.80953996 C10.1324325,7.42413527 9.06143912,7.6371691 8.34930411,8.34930411 C7.6371691,9.06143912 7.42413527,10.1324325 7.80953996,11.0628817 C8.19494465,11.993331 9.10288901,12.6 10.11,12.6 Z M11.24,9.41 C11.6265993,9.41 11.94,9.72340068 11.94,10.11 C11.94,10.4965993 11.6265993,10.81 11.24,10.81 L10.11,10.81 C9.72340068,10.81 9.41,10.4965993 9.41,10.11 L9.41,8.71 C9.41,8.32340068 9.72340068,8.01 10.11,8.01 C10.4965993,8.01 10.81,8.32340068 10.81,8.71 L10.81,9.41 L11.24,9.41 Z" id="Combined-Shape"></path>
                </g>
            </g>
        </g>
    </g>
</svg>

<svg viewBox="0 0 14 14"><path d="M11.6.85a2.41 2.41 0 0 1 2.4 2.4v2.21a.7.7 0 0 1-1.4 0v-.1H1.4v6.24a1 1 0 0 0 1 1h3.06a.7.7 0 0 1 0 1.4H2.4A2.41 2.41 0 0 1 0 11.6V3.25A2.41 2.41 0 0 1 2.4.85H3V.7a.7.7 0 0 1 1.37 0v.15H9.6V.7a.7.7 0 1 1 1.4 0v.15h.6zM1.4 4h11.23v-.75a1 1 0 0 0-1-1h-.57v.21a.7.7 0 0 1-1.4 0v-.21H4.4v.21a.7.7 0 0 1-1.4 0v-.21h-.6a1 1 0 0 0-1 1V4zm8.71 2.21a3.91 3.91 0 0 1 3.89 3.9 3.9 3.9 0 1 1-3.89-3.9zm0 6.39a2.49 2.49 0 1 0 0-4.98 2.49 2.49 0 0 0 0 4.98zm1.13-3.19a.7.7 0 0 1 0 1.4h-1.13a.7.7 0 0 1-.7-.7v-1.4a.7.7 0 0 1 1.4 0v.7h.43z" fill="currentColor" fill-rule="evenodd"/></svg>
